X:85
T:Son ear Chistr
M:3/4
L:1/8
Q:150
K:Em
z4 z A | AF G2 E | EA AG FA | AF G2 E2 | FDE3 A |
AF G2 E | EA AG FA | AF G2 E2 | FDE3 E |
GA B2 B2 | cA B3 B | AA G2 E2 | EA AG FA |
AF G2 E2 | FD E3 E | GA B2 B2 | cA B3 B |
AA G2 E2 | EA AG FA | AF G2 E2 | FD E4 ||
